images/16759271.svg

<?xml version="1.0" encoding="UTF-8"?>
<svg xmlns="http://www.w3.org/2000/svg" xmlns:xlink="http://www.w3.org/1999/xlink" width="300pt" height="300pt" viewBox="0 0 300 300" version="1.1">
<defs>
<g>
<symbol overflow="visible" id="glyph0-0">
<path style="stroke:none;" d="M 0.640625 2.296875 L 0.640625 -9.171875 L 7.140625 -9.171875 L 7.140625 2.296875 Z M 1.375 1.578125 L 6.421875 1.578125 L 6.421875 -8.4375 L 1.375 -8.4375 Z M 1.375 1.578125 "/>
</symbol>
<symbol overflow="visible" id="glyph0-1">
<path style="stroke:none;" d="M 5.125 -8.609375 C 4.1875 -8.609375 3.441406 -8.257812 2.890625 -7.5625 C 2.347656 -6.875 2.078125 -5.929688 2.078125 -4.734375 C 2.078125 -3.535156 2.347656 -2.585938 2.890625 -1.890625 C 3.441406 -1.203125 4.1875 -0.859375 5.125 -0.859375 C 6.050781 -0.859375 6.785156 -1.203125 7.328125 -1.890625 C 7.878906 -2.585938 8.15625 -3.535156 8.15625 -4.734375 C 8.15625 -5.929688 7.878906 -6.875 7.328125 -7.5625 C 6.785156 -8.257812 6.050781 -8.609375 5.125 -8.609375 Z M 5.125 -9.65625 C 6.445312 -9.65625 7.503906 -9.207031 8.296875 -8.3125 C 9.097656 -7.414062 9.5 -6.222656 9.5 -4.734375 C 9.5 -3.234375 9.097656 -2.035156 8.296875 -1.140625 C 7.503906 -0.253906 6.445312 0.1875 5.125 0.1875 C 3.789062 0.1875 2.722656 -0.253906 1.921875 -1.140625 C 1.128906 -2.035156 0.734375 -3.234375 0.734375 -4.734375 C 0.734375 -6.222656 1.128906 -7.414062 1.921875 -8.3125 C 2.722656 -9.207031 3.789062 -9.65625 5.125 -9.65625 Z M 5.125 -9.65625 "/>
</symbol>
<symbol overflow="visible" id="glyph0-2">
<path style="stroke:none;" d="M 1.28125 -9.484375 L 3 -9.484375 L 7.203125 -1.546875 L 7.203125 -9.484375 L 8.453125 -9.484375 L 8.453125 0 L 6.71875 0 L 2.515625 -7.921875 L 2.515625 0 L 1.28125 0 Z M 1.28125 -9.484375 "/>
</symbol>
<symbol overflow="visible" id="glyph0-3">
<path style="stroke:none;" d="M 1.28125 -9.484375 L 2.5625 -9.484375 L 2.5625 -5.59375 L 7.21875 -5.59375 L 7.21875 -9.484375 L 8.5 -9.484375 L 8.5 0 L 7.21875 0 L 7.21875 -4.515625 L 2.5625 -4.515625 L 2.5625 0 L 1.28125 0 Z M 1.28125 -9.484375 "/>
</symbol>
</g>
</defs>
<g id="surface50277">
<rect x="0" y="0" width="300" height="300" style="fill:rgb(100%,100%,100%);fill-opacity:1;stroke:none;"/>
<path style="fill:none;stroke-width:1.2;stroke-linecap:butt;stroke-linejoin:miter;stroke:rgb(0%,0%,0%);stroke-opacity:1;stroke-miterlimit:10;" d="M 201.585938 223.316406 L 188.261719 191.3125 "/>
<path style="fill:none;stroke-width:1.2;stroke-linecap:butt;stroke-linejoin:miter;stroke:rgb(0%,0%,0%);stroke-opacity:1;stroke-miterlimit:10;" d="M 188.261719 191.3125 L 153.882812 186.851562 "/>
<path style="fill:none;stroke-width:1.2;stroke-linecap:butt;stroke-linejoin:miter;stroke:rgb(0%,0%,0%);stroke-opacity:1;stroke-miterlimit:10;" d="M 188.261719 191.3125 L 209.316406 163.769531 "/>
<path style="fill:none;stroke-width:1.2;stroke-linecap:butt;stroke-linejoin:miter;stroke:rgb(0%,0%,0%);stroke-opacity:1;stroke-miterlimit:10;" d="M 209.316406 163.769531 L 230.371094 136.230469 "/>
<path style="fill:none;stroke-width:1.2;stroke-linecap:butt;stroke-linejoin:miter;stroke:rgb(0%,0%,0%);stroke-opacity:1;stroke-miterlimit:10;" d="M 209.316406 163.769531 L 181.773438 142.71875 "/>
<path style="fill:none;stroke-width:1.2;stroke-linecap:butt;stroke-linejoin:miter;stroke:rgb(0%,0%,0%);stroke-opacity:1;stroke-miterlimit:10;" d="M 209.316406 163.769531 L 223.085938 174.296875 "/>
<path style="fill:none;stroke-width:1.2;stroke-linecap:butt;stroke-linejoin:miter;stroke:rgb(100%,0%,0%);stroke-opacity:1;stroke-miterlimit:10;" d="M 223.085938 174.296875 L 236.859375 184.824219 "/>
<path style="fill:none;stroke-width:1.2;stroke-linecap:butt;stroke-linejoin:miter;stroke:rgb(0%,0%,0%);stroke-opacity:1;stroke-miterlimit:10;" d="M 230.371094 136.230469 L 264.75 140.691406 "/>
<path style="fill:none;stroke-width:1.2;stroke-linecap:butt;stroke-linejoin:miter;stroke:rgb(0%,0%,0%);stroke-opacity:1;stroke-miterlimit:10;" d="M 230.371094 136.230469 L 223.707031 120.226562 "/>
<path style="fill:none;stroke-width:1.2;stroke-linecap:butt;stroke-linejoin:miter;stroke:rgb(100%,0%,0%);stroke-opacity:1;stroke-miterlimit:10;" d="M 223.707031 120.226562 L 217.046875 104.222656 "/>
<path style="fill:none;stroke-width:1.2;stroke-linecap:butt;stroke-linejoin:miter;stroke:rgb(100%,0%,0%);stroke-opacity:1;stroke-miterlimit:10;" d="M 217.046875 104.222656 L 227.570312 90.453125 "/>
<path style="fill:none;stroke-width:1.2;stroke-linecap:butt;stroke-linejoin:miter;stroke:rgb(0%,0%,0%);stroke-opacity:1;stroke-miterlimit:10;" d="M 227.570312 90.453125 L 238.097656 76.683594 "/>
<path style=" stroke:none;fill-rule:nonzero;fill:rgb(100%,100%,100%);fill-opacity:1;" d="M 212.046875 96.222656 L 223.046875 96.222656 L 223.046875 112.222656 L 212.046875 112.222656 Z M 212.046875 96.222656 "/>
<g style="fill:rgb(100%,0%,0%);fill-opacity:1;">
  <use xlink:href="#glyph0-1" x="212.046875" y="108.598633"/>
</g>
<path style="fill:none;stroke-width:1.2;stroke-linecap:butt;stroke-linejoin:miter;stroke:rgb(0%,0%,0%);stroke-opacity:1;stroke-miterlimit:10;" d="M 185.820312 143.242188 L 188.050781 126.050781 "/>
<path style="fill:none;stroke-width:1.2;stroke-linecap:butt;stroke-linejoin:miter;stroke:rgb(100%,0%,0%);stroke-opacity:1;stroke-miterlimit:10;" d="M 188.050781 126.050781 L 190.28125 108.863281 "/>
<path style="fill:none;stroke-width:1.2;stroke-linecap:butt;stroke-linejoin:miter;stroke:rgb(0%,0%,0%);stroke-opacity:1;stroke-miterlimit:10;" d="M 177.730469 142.191406 L 179.960938 125.003906 "/>
<path style="fill:none;stroke-width:1.2;stroke-linecap:butt;stroke-linejoin:miter;stroke:rgb(100%,0%,0%);stroke-opacity:1;stroke-miterlimit:10;" d="M 179.960938 125.003906 L 182.191406 107.8125 "/>
<path style="fill:none;stroke-width:1.2;stroke-linecap:butt;stroke-linejoin:miter;stroke:rgb(0%,0%,0%);stroke-opacity:1;stroke-miterlimit:10;" d="M 181.773438 142.71875 L 165.773438 149.378906 "/>
<path style="fill:none;stroke-width:1.2;stroke-linecap:butt;stroke-linejoin:miter;stroke:rgb(100%,0%,0%);stroke-opacity:1;stroke-miterlimit:10;" d="M 165.773438 149.378906 L 149.769531 156.042969 "/>
<path style=" stroke:none;fill-rule:nonzero;fill:rgb(100%,100%,100%);fill-opacity:1;" d="M 181.234375 100.335938 L 192.234375 100.335938 L 192.234375 116.335938 L 181.234375 116.335938 Z M 181.234375 100.335938 "/>
<g style="fill:rgb(100%,0%,0%);fill-opacity:1;">
  <use xlink:href="#glyph0-1" x="181.234375" y="112.711914"/>
</g>
<path style="fill:none;stroke-width:1.2;stroke-linecap:butt;stroke-linejoin:miter;stroke:rgb(100%,0%,0%);stroke-opacity:1;stroke-miterlimit:10;" d="M 149.769531 156.042969 L 135.996094 145.515625 "/>
<path style="fill:none;stroke-width:1.2;stroke-linecap:butt;stroke-linejoin:miter;stroke:rgb(0%,0%,0%);stroke-opacity:1;stroke-miterlimit:10;" d="M 135.996094 145.515625 L 122.226562 134.988281 "/>
<path style=" stroke:none;fill-rule:nonzero;fill:rgb(100%,100%,100%);fill-opacity:1;" d="M 144.769531 148.042969 L 155.769531 148.042969 L 155.769531 164.042969 L 144.769531 164.042969 Z M 144.769531 148.042969 "/>
<g style="fill:rgb(100%,0%,0%);fill-opacity:1;">
  <use xlink:href="#glyph0-1" x="144.769531" y="160.418945"/>
</g>
<path style="fill:none;stroke-width:1.2;stroke-linecap:butt;stroke-linejoin:miter;stroke:rgb(0%,0%,0%);stroke-opacity:1;stroke-miterlimit:10;" d="M 122.226562 134.988281 L 123.070312 100.332031 "/>
<path style="fill:none;stroke-width:1.2;stroke-linecap:butt;stroke-linejoin:miter;stroke:rgb(0%,0%,0%);stroke-opacity:1;stroke-miterlimit:10;" d="M 114.15625 131.324219 L 114.832031 103.597656 "/>
<path style=" stroke:none;fill-rule:nonzero;fill:rgb(0%,0%,0%);fill-opacity:1;" d="M 89.003906 144.894531 L 123.976562 140.851562 L 120.476562 129.125 Z M 89.003906 144.894531 "/>
<path style="fill:none;stroke-width:1.2;stroke-linecap:butt;stroke-linejoin:miter;stroke:rgb(0%,0%,0%);stroke-opacity:1;stroke-miterlimit:10;" d="M 123.070312 100.332031 L 90.371094 88.816406 "/>
<path style="fill:none;stroke-width:1.2;stroke-linecap:butt;stroke-linejoin:miter;stroke:rgb(0%,0%,0%);stroke-opacity:1;stroke-miterlimit:10;" d="M 90.371094 88.816406 L 79.84375 102.589844 "/>
<path style="fill:none;stroke-width:1.2;stroke-linecap:butt;stroke-linejoin:miter;stroke:rgb(0%,0%,100%);stroke-opacity:1;stroke-miterlimit:10;" d="M 79.84375 102.589844 L 69.316406 116.359375 "/>
<path style="fill:none;stroke-width:1.2;stroke-linecap:butt;stroke-linejoin:miter;stroke:rgb(0%,0%,100%);stroke-opacity:1;stroke-miterlimit:10;" d="M 69.316406 116.359375 L 79.160156 130.628906 "/>
<path style="fill:none;stroke-width:1.2;stroke-linecap:butt;stroke-linejoin:miter;stroke:rgb(0%,0%,0%);stroke-opacity:1;stroke-miterlimit:10;" d="M 79.160156 130.628906 L 89.003906 144.894531 "/>
<path style="fill:none;stroke-width:1.2;stroke-linecap:butt;stroke-linejoin:miter;stroke:rgb(0%,0%,0%);stroke-opacity:1;stroke-miterlimit:10;" d="M 36.09375 126.269531 L 52.707031 121.3125 "/>
<path style="fill:none;stroke-width:1.2;stroke-linecap:butt;stroke-linejoin:miter;stroke:rgb(0%,0%,100%);stroke-opacity:1;stroke-miterlimit:10;" d="M 52.707031 121.3125 L 69.316406 116.359375 "/>
<path style=" stroke:none;fill-rule:nonzero;fill:rgb(100%,100%,100%);fill-opacity:1;" d="M 64.316406 108.359375 L 74.316406 108.359375 L 74.316406 124.359375 L 64.316406 124.359375 Z M 64.316406 108.359375 "/>
<g style="fill:rgb(0%,0%,100%);fill-opacity:1;">
  <use xlink:href="#glyph0-2" x="64.316406" y="120.735352"/>
</g>
<path style="fill:none;stroke-width:1.2;stroke-linecap:butt;stroke-linejoin:miter;stroke:rgb(0%,0%,0%);stroke-opacity:1;stroke-miterlimit:10;" d="M 89.003906 144.894531 L 67.949219 172.4375 "/>
<path style="fill:none;stroke-width:1.2;stroke-linecap:butt;stroke-linejoin:miter;stroke:rgb(0%,0%,0%);stroke-opacity:1;stroke-miterlimit:10;" d="M 67.949219 172.4375 L 35.25 160.925781 "/>
<path style=" stroke:none;fill-rule:nonzero;fill:rgb(0%,0%,0%);fill-opacity:1;" d="M 67.949219 172.4375 L 71.996094 207.410156 L 83.71875 203.910156 Z M 67.949219 172.4375 "/>
<path style="fill:none;stroke-width:1.2;stroke-linecap:butt;stroke-linejoin:miter;stroke:rgb(0%,0%,0%);stroke-opacity:1;stroke-miterlimit:10;" d="M 35.25 160.925781 L 36.09375 126.269531 "/>
<path style=" stroke:none;fill-rule:nonzero;fill:rgb(100%,100%,100%);fill-opacity:1;" d="M 67.859375 197.660156 L 88.859375 197.660156 L 88.859375 213.660156 L 67.859375 213.660156 Z M 67.859375 197.660156 "/>
<g style="fill:rgb(100%,0%,0%);fill-opacity:1;">
  <use xlink:href="#glyph0-1" x="67.859375" y="210.036133"/>
  <use xlink:href="#glyph0-3" x="78.349609" y="210.036133"/>
</g>
<path style=" stroke:none;fill-rule:nonzero;fill:rgb(100%,100%,100%);fill-opacity:1;" d="M 226.859375 176.824219 L 247.859375 176.824219 L 247.859375 192.824219 L 226.859375 192.824219 Z M 226.859375 176.824219 "/>
<g style="fill:rgb(100%,0%,0%);fill-opacity:1;">
  <use xlink:href="#glyph0-1" x="226.859375" y="189.200195"/>
  <use xlink:href="#glyph0-3" x="237.349609" y="189.200195"/>
</g>
</g>
</svg>

<svg xmlns="http://www.w3.org/2000/svg" xmlns:xlink="http://www.w3.org/1999/xlink" width="300pt" height="300pt" viewBox="0 0 300 300"><defs><symbol overflow="visible"><path d="M.64 2.297v-11.47h6.5v11.47zm.735-.72h5.047V-8.436H1.375zm0 0"/></symbol><symbol overflow="visible" id="a"><path d="M5.125-8.61c-.938 0-1.684.352-2.234 1.047-.542.688-.812 1.633-.812 2.83 0 1.198.27 2.147.813 2.842.55.687 1.297 1.03 2.235 1.03.926 0 1.66-.343 2.203-1.03.55-.696.828-1.645.828-2.844 0-1.196-.277-2.14-.828-2.829-.543-.695-1.277-1.046-2.203-1.046zm0-1.046c1.32 0 2.38.45 3.172 1.344.8.898 1.203 2.09 1.203 3.578 0 1.5-.402 2.7-1.203 3.593C7.504-.255 6.445.186 5.125.186c-1.336 0-2.402-.44-3.203-1.328C1.13-2.036.734-3.235.734-4.735c0-1.49.395-2.68 1.188-3.579.8-.894 1.867-1.343 3.203-1.343zm0 0"/></symbol><symbol overflow="visible" id="b"><path d="M1.28-9.484H3l4.203 7.937v-7.937h1.25V0H6.72L2.515-7.922V0H1.28zm0 0"/></symbol><symbol overflow="visible" id="c"><path d="M1.28-9.484h1.282v3.89H7.22v-3.89H8.5V0H7.22v-4.516H2.562V0H1.28zm0 0"/></symbol></defs><g><path fill="#fff" d="M0 0h300v300H0z"/><path d="M201.586 223.316l-13.324-32.004M188.262 191.313l-34.38-4.46M188.262 191.313l21.054-27.543M209.316 163.77l21.055-27.54M209.316 163.77l-27.543-21.05M209.316 163.77l13.77 10.527" stroke-width="1.2" stroke="#000" stroke-miterlimit="10" fill="none"/><path d="M223.086 174.297l13.773 10.527" stroke-width="1.2" stroke="#f00" stroke-miterlimit="10" fill="none"/><path d="M230.37 136.23l34.38 4.46M230.37 136.23l-6.663-16.003" stroke-width="1.2" stroke="#000" stroke-miterlimit="10" fill="none"/><path d="M223.707 120.227l-6.66-16.004M217.047 104.223l10.523-13.77" stroke-width="1.2" stroke="#f00" stroke-miterlimit="10" fill="none"/><path d="M227.57 90.453l10.528-13.77" stroke-width="1.2" stroke="#000" stroke-miterlimit="10" fill="none"/><path d="M212.047 96.223h11v16h-11zm0 0" fill="#fff"/><use xlink:href="#a" x="212.047" y="108.599" fill="#f00"/><path d="M185.82 143.242l2.23-17.19" stroke-width="1.2" stroke="#000" stroke-miterlimit="10" fill="none"/><path d="M188.05 126.05l2.23-17.187" stroke-width="1.2" stroke="#f00" stroke-miterlimit="10" fill="none"/><path d="M177.73 142.19l2.23-17.186" stroke-width="1.2" stroke="#000" stroke-miterlimit="10" fill="none"/><path d="M179.96 125.004l2.23-17.192" stroke-width="1.2" stroke="#f00" stroke-miterlimit="10" fill="none"/><path d="M181.773 142.72l-16 6.66" stroke-width="1.2" stroke="#000" stroke-miterlimit="10" fill="none"/><path d="M165.773 149.38l-16.003 6.663" stroke-width="1.2" stroke="#f00" stroke-miterlimit="10" fill="none"/><path d="M181.234 100.336h11v16h-11zm0 0" fill="#fff"/><use xlink:href="#a" x="181.234" y="112.712" fill="#f00"/><path d="M149.77 156.043l-13.774-10.527" stroke-width="1.2" stroke="#f00" stroke-miterlimit="10" fill="none"/><path d="M135.996 145.516l-13.77-10.528" stroke-width="1.2" stroke="#000" stroke-miterlimit="10" fill="none"/><path d="M144.77 148.043h11v16h-11zm0 0" fill="#fff"/><use xlink:href="#a" x="144.77" y="160.419" fill="#f00"/><path d="M122.227 134.988l.843-34.656M114.156 131.324l.676-27.726" stroke-width="1.2" stroke="#000" stroke-miterlimit="10" fill="none"/><path d="M89.004 144.895l34.973-4.043-3.5-11.727zm0 0"/><path d="M123.07 100.332l-32.7-11.516M90.37 88.816L79.845 102.59" stroke-width="1.2" stroke="#000" stroke-miterlimit="10" fill="none"/><path d="M79.844 102.59l-10.528 13.77M69.316 116.36l9.844 14.27" stroke-width="1.2" stroke="#00f" stroke-miterlimit="10" fill="none"/><path d="M79.16 130.63l9.844 14.265M36.094 126.27l16.613-4.957" stroke-width="1.2" stroke="#000" stroke-miterlimit="10" fill="none"/><path d="M52.707 121.313l16.61-4.954" stroke-width="1.2" stroke="#00f" stroke-miterlimit="10" fill="none"/><path d="M64.316 108.36h10v16h-10zm0 0" fill="#fff"/><use xlink:href="#b" x="64.316" y="120.735" fill="#00f"/><path d="M89.004 144.895L67.95 172.437M67.95 172.438l-32.7-11.512" stroke-width="1.2" stroke="#000" stroke-miterlimit="10" fill="none"/><path d="M67.95 172.438l4.046 34.972 11.723-3.5zm0 0"/><path d="M35.25 160.926l.844-34.656" stroke-width="1.2" stroke="#000" stroke-miterlimit="10" fill="none"/><path d="M67.86 197.66h21v16h-21zm0 0" fill="#fff"/><g fill="#f00"><use xlink:href="#a" x="67.859" y="210.036"/><use xlink:href="#c" x="78.35" y="210.036"/></g><path d="M226.86 176.824h21v16h-21zm0 0" fill="#fff"/><g fill="#f00"><use xlink:href="#a" x="226.859" y="189.2"/><use xlink:href="#c" x="237.35" y="189.2"/></g></g></svg>
